images/badge/seafood.svg

<svg viewBox="0 0 36 36" fill="none" xmlns="http://www.w3.org/2000/svg">
<path d="M0 8C0 3.58172 3.58172 0 8 0H28C32.4183 0 36 3.58172 36 8V28C36 32.4183 32.4183 36 28 36H8C3.58172 36 0 32.4183 0 28V8Z" fill="#0094E4"/>
<path d="M17.3282 13.5117C15.4867 13.6502 13.7099 14.2505 12.1617 15.2572C12.3642 14.4505 12.7929 13.7185 13.3975 13.1474C14.002 12.5762 14.7572 12.1897 15.5741 12.0334C15.7902 11.9899 16.0134 11.9958 16.227 12.0505C16.4406 12.1052 16.639 12.2075 16.8076 12.3495C16.9762 12.4916 17.1106 12.6699 17.2007 12.8711C17.2909 13.0724 17.3344 13.2913 17.3282 13.5117ZM25.7584 13.4964C25.5164 13.1653 25.2095 12.8871 24.8563 12.6786C24.5032 12.4701 24.1113 12.3358 23.7045 12.2839C23.6526 11.8771 23.5183 11.4852 23.3098 11.1321C23.1013 10.7789 22.8231 10.472 22.492 10.23C22.3222 10.1022 22.1202 10.0242 21.9086 10.0048C21.697 9.98532 21.4841 10.0252 21.2939 10.1198C21.1036 10.2145 20.9435 10.3603 20.8314 10.5408C20.7193 10.7213 20.6597 10.9295 20.6592 11.142V14.6629C15.6513 14.6629 12.794 15.6203 11.3077 18.1232C12.8849 18.5352 14.3237 19.3605 15.4756 20.5138C16.6276 21.6672 17.4511 23.107 17.8612 24.6847C20.3668 23.1991 21.3255 20.341 21.3255 15.3291L24.8464 15.3291C25.0589 15.3287 25.267 15.2691 25.4476 15.157C25.6281 15.0449 25.7739 14.8848 25.8686 14.6945C25.9632 14.5043 26.0031 14.2914 25.9836 14.0798C25.9642 13.8682 25.8862 13.6662 25.7584 13.4964ZM22.7911 18.6602H22.4747C22.3742 19.5629 22.1929 20.4547 21.933 21.325H22.4753C24.1322 21.3763 24.6645 18.7428 22.7911 18.6602ZM16.6293 25.263C15.0304 25.7213 12.2743 26.6907 10.78 25.2084C10.5117 24.9408 10.3037 24.6189 10.1702 24.2643C10.0367 23.9096 9.98065 23.5305 10.0059 23.1524C10.0677 21.8593 10.3101 20.5811 10.7261 19.355C12.1683 19.6802 13.4887 20.4079 14.5337 21.4537C15.5787 22.4996 16.3054 23.8205 16.6293 25.263ZM13.3309 23.3237C13.3309 23.147 13.2608 22.9775 13.1358 22.8526C13.0109 22.7276 12.8414 22.6574 12.6647 22.6574C12.488 22.6574 12.3186 22.7276 12.1937 22.8526C12.0687 22.9775 11.9985 23.147 11.9985 23.3237C11.9985 23.5003 12.0687 23.6698 12.1937 23.7947C12.3186 23.9197 12.488 23.9899 12.6647 23.9899C12.8414 23.9899 13.0109 23.9197 13.1358 23.7947C13.2608 23.6698 13.3309 23.5003 13.3309 23.3237Z" fill="white"/>
</svg>

<svg xmlns="http://www.w3.org/2000/svg" fill="none" viewBox="0 0 36 36"><path fill="#0094E4" d="M0 8a8 8 0 0 1 8-8h20a8 8 0 0 1 8 8v20a8 8 0 0 1-8 8H8a8 8 0 0 1-8-8z"/><path fill="#fff" d="M17.328 13.512a11 11 0 0 0-5.166 1.745 4.36 4.36 0 0 1 3.412-3.224 1.466 1.466 0 0 1 1.754 1.479m8.43-.016a3.02 3.02 0 0 0-2.053-1.212 3.02 3.02 0 0 0-1.213-2.054 1.144 1.144 0 0 0-1.833.912v3.52c-5.008 0-7.865.958-9.351 3.461a9.16 9.16 0 0 1 6.553 6.562c2.506-1.486 3.465-4.344 3.465-9.356h3.52a1.144 1.144 0 0 0 .912-1.833m-2.967 5.164h-.316c-.1.903-.282 1.795-.542 2.665h.542c1.657.051 2.19-2.582.316-2.665m-6.162 6.603c-1.599.458-4.355 1.428-5.849-.055a2.66 2.66 0 0 1-.774-2.056c.062-1.293.304-2.57.72-3.797a7.81 7.81 0 0 1 5.903 5.908m-3.298-1.94a.666.666 0 1 0-1.332 0 .666.666 0 0 0 1.332 0"/></svg>
